packages/ffe-icons/icons/open/300/md/cloudy_snowing.svg

<svg xmlns="http://www.w3.org/2000/svg" height="24" viewBox="0 -960 960 960" width="24"><path d="M240-207.693q-13.731 0-23.019-9.288-9.288-9.288-9.288-23.019 0-13.731 9.288-23.019 9.288-9.288 23.019-9.288 13.731 0 23.019 9.288 9.288 9.288 9.288 23.019 0 13.731-9.288 23.019-9.288 9.288-23.019 9.288Zm480 0q-13.731 0-23.019-9.288-9.288-9.288-9.288-23.019 0-13.731 9.288-23.019 9.288-9.288 23.019-9.288 13.731 0 23.019 9.288 9.288 9.288 9.288 23.019 0 13.731-9.288 23.019-9.288 9.288-23.019 9.288Zm-360 160q-13.731 0-23.019-9.288-9.288-9.288-9.288-23.019 0-13.73 9.288-23.019 9.288-9.288 23.019-9.288 13.731 0 23.019 9.288 9.288 9.288 9.288 23.019 0 13.73-9.288 23.019-9.288 9.288-23.019 9.288Zm120-160q-13.731 0-23.019-9.288-9.288-9.288-9.288-23.019 0-13.731 9.288-23.019 9.288-9.288 23.019-9.288 13.731 0 23.019 9.288 9.288 9.288 9.288 23.019 0 13.731-9.288 23.019-9.288 9.288-23.019 9.288Zm120 160q-13.731 0-23.019-9.288-9.288-9.288-9.288-23.019 0-13.73 9.288-23.019 9.288-9.288 23.019-9.288 13.731 0 23.019 9.288 9.288 9.288 9.288 23.019 0 13.73-9.288 23.019-9.288 9.288-23.019 9.288ZM300-330q-87.154 0-148.576-61.423Q90.001-452.846 90.001-540q0-80.307 53.653-139.615 53.654-59.307 133.5-69.154 30.881-56.64 84.441-88.935 53.559-32.295 118.257-32.295 88.225 0 152.417 57.307 64.192 57.308 76.269 142.923 71.308 5.231 116.384 54.116 45.077 48.884 45.077 115.769 0 70.653-49.583 120.268Q770.833-330.001 700-330.001H300Zm0-59.998h400q45.846 0 77.924-32.077 32.077-32.078 32.077-77.924 0-45.846-32.077-77.924-32.078-32.077-77.924-32.077h-49.999V-640q0-70.125-49.955-120.063t-120.105-49.938q-51.018 0-92.974 27.667-41.955 27.667-63.198 74.488l-7.363 17.845H298q-61.131 2.143-104.566 45.536T149.999-540q0 62.143 43.929 106.072T300-389.999ZM480-600Z"/></svg>

<svg xmlns="http://www.w3.org/2000/svg" height="24" viewBox="0 -960 960 960" width="24"><path d="M240-207.69q-13.73 0-23.02-9.29T207.69-240q0-13.73 9.29-23.02t23.02-9.29q13.73 0 23.02 9.29t9.29 23.02q0 13.73-9.29 23.02T240-207.69Zm480 0q-13.73 0-23.02-9.29T687.69-240q0-13.73 9.29-23.02t23.02-9.29q13.73 0 23.02 9.29t9.29 23.02q0 13.73-9.29 23.02T720-207.69Zm-360 160q-13.73 0-23.02-9.29T327.69-80q0-13.73 9.29-23.02t23.02-9.29q13.73 0 23.02 9.29T392.31-80q0 13.73-9.29 23.02T360-47.69Zm120-160q-13.73 0-23.02-9.29T447.69-240q0-13.73 9.29-23.02t23.02-9.29q13.73 0 23.02 9.29t9.29 23.02q0 13.73-9.29 23.02T480-207.69Zm120 160q-13.73 0-23.02-9.29T567.69-80q0-13.73 9.29-23.02t23.02-9.29q13.73 0 23.02 9.29T632.31-80q0 13.73-9.29 23.02T600-47.69ZM300-330q-87.15 0-148.58-61.42Q90-452.85 90-540q0-80.31 53.65-139.61 53.66-59.31 133.5-69.16 30.89-56.64 84.44-88.93Q415.15-870 479.85-870q88.23 0 152.42 57.31 64.19 57.31 76.27 142.92 71.31 5.23 116.38 54.12Q870-566.77 870-499.88q0 70.65-49.58 120.26Q770.83-330 700-330H300Zm0-60h400q45.85 0 77.92-32.08Q810-454.15 810-500t-32.08-77.92Q745.85-610 700-610h-50v-30q0-70.13-49.95-120.06Q550.09-810 479.94-810q-51.02 0-92.97 27.67-41.96 27.66-63.2 74.48L316.41-690H298q-61.13 2.14-104.57 45.54Q150-601.07 150-540q0 62.14 43.93 106.07Q237.86-390 300-390Zm180-210Z"/></svg>
